view/frontend/web/svg/flags/lk.svg

<svg width="24" height="24" viewbox="0 0 20 15" viewBox="0 0 20 15" fill="none" xmlns="http://www.w3.org/2000/svg">
<g clip-path="url(#clip0_270_60875)">
<rect width="20" height="15" fill="white"/>
<path fill-rule="evenodd" clip-rule="evenodd" d="M0 0H20V15H0V0Z" fill="#FECA00"/>
<rect x="1.25" y="1.25" width="3.75" height="12.5" fill="#1F8A6E"/>
<rect x="5" y="1.25" width="3.75" height="12.5" fill="#F56800"/>
<rect x="8.75" y="1.25" width="10" height="12.5" fill="#B01D00"/>
<rect x="7.5" y="1.25" width="1.25" height="12.5" fill="#E8AA00"/>
<path fill-rule="evenodd" clip-rule="evenodd" d="M10.6878 3.85842C10.6878 3.85842 9.89173 3.85611 9.89173 5.24224V7.27485C9.89173 7.27485 9.51277 7.34241 9.51277 7.57782C9.51277 7.81323 9.59308 8.01921 9.74241 8.01921C9.89173 8.01921 10.0411 8.70978 9.89173 8.70978C9.74241 8.70978 9.59308 9.00609 9.74241 9.00609C9.77813 9.00609 9.80531 9.00124 9.82599 8.99756C9.84773 8.99368 9.86228 8.99109 9.87202 8.99676C9.89173 9.00823 9.89173 9.05355 9.89173 9.19056C9.89173 9.45966 9.74241 9.56847 9.74241 9.56847C9.74241 9.56847 9.60178 9.52923 9.60178 9.68759C9.60178 9.84596 9.74241 9.88604 9.74241 9.88604C9.74241 9.88604 9.82292 9.92085 9.66785 9.99583C9.51277 10.0708 9.51277 10.1071 9.51277 10.1071H9.89173L10.0815 10.4543L10.2626 10.1071H10.6367C10.6367 10.1071 10.4483 9.98659 10.4262 9.96134C10.4041 9.93609 10.3774 9.8992 10.4262 9.85698C10.4405 9.84467 10.4613 9.83526 10.4837 9.82516C10.538 9.80062 10.6015 9.77198 10.6015 9.68759C10.6015 9.56847 10.3627 9.56847 10.3627 9.56847C10.3627 9.56847 10.217 9.30542 10.2626 9.19056C10.2754 9.15844 10.2826 9.12986 10.2889 9.10535C10.3049 9.04221 10.3141 9.00609 10.3925 9.00609C10.5012 9.00609 10.5636 8.86881 10.4262 8.70978C10.4262 8.70978 10.5837 8.87909 10.5374 9.0988C10.4912 9.3185 10.5856 9.418 10.6367 9.418C10.6878 9.418 10.7691 9.34245 10.7691 9.34245C10.7691 9.34245 11.1938 9.72215 11.3804 9.72215C11.5671 9.72215 11.8346 9.418 11.8346 9.418L12.2188 9.63377C12.2188 9.63377 12.5 10.0277 12.4586 10.2985C12.4171 10.5693 12.2568 10.7202 12.0682 10.6783C11.8796 10.6365 11.5728 10.7224 11.5494 10.8392C11.5459 10.8569 11.5406 10.8784 11.5348 10.9021L11.5348 10.9021C11.5025 11.0347 11.4542 11.2331 11.6021 11.1842C11.7763 11.1265 11.8104 11.0822 11.8104 11.0822C11.8104 11.0822 11.7875 11.1842 11.9279 11.1842C12.0682 11.1842 12.1088 11.0822 12.1088 11.0822C12.1088 11.0822 12.2543 11.1842 12.3564 11.1842C12.4586 11.1842 12.573 11.1056 12.573 11.1056C12.573 11.1056 12.6483 11.2223 12.8149 11.1842C12.9815 11.146 13.1073 10.7113 12.9862 10.6139C12.9862 10.6139 13.388 10.5556 13.4911 10.2063C13.4911 10.2063 13.1024 10.2005 13.1425 9.96134C13.1826 9.72215 13.3878 9.56847 13.3878 9.56847C13.3878 9.56847 13.9789 9.28231 14.2333 9.19056C14.4876 9.0988 14.9103 9.00609 15.015 9.00609C15.0577 9.00609 15.0881 9.10559 15.1294 9.24047C15.1895 9.43702 15.2726 9.70868 15.4499 9.85698C15.7489 10.1071 15.545 10.6783 15.545 10.6783C15.545 10.6783 14.8797 10.7454 14.8797 10.9255C14.8797 11.1056 14.8904 11.1842 15.015 11.1842C15.1396 11.1842 15.1371 11.0822 15.1371 11.0822C15.1371 11.0822 15.2111 11.1842 15.3305 11.1842C15.4499 11.1842 15.545 11.0822 15.545 11.0822C15.545 11.0822 15.5767 11.1842 15.7332 11.1842C15.8896 11.1842 15.8885 11.0822 15.8885 11.0822C15.8885 11.0822 15.9167 11.1842 16.0545 11.1842C16.1924 11.1842 16.4755 11.0822 16.4755 11.0822C16.4755 11.0822 16.5198 11.1842 16.663 11.1842C16.8062 11.1842 16.8095 11.0822 16.8095 11.0822C16.8095 11.0822 16.886 11.1842 17.01 11.1842C17.134 11.1842 17.2067 11.0822 17.2067 11.0822C17.2067 11.0822 17.385 11.1842 17.5081 11.1842C17.6311 11.1842 17.5869 11.0001 17.5081 10.8392C17.4881 10.7985 17.465 10.7638 17.4439 10.732C17.3816 10.6382 17.3367 10.5707 17.4423 10.4543C17.4722 10.4213 17.5064 10.388 17.5407 10.3547L17.5407 10.3547C17.6686 10.2303 17.7971 10.1053 17.703 9.99583C17.675 9.96335 17.6423 9.94061 17.6094 9.91775C17.5016 9.84291 17.3919 9.76671 17.4423 9.34245C17.4725 9.0884 17.5298 8.88186 17.583 8.6901L17.583 8.69009C17.6459 8.46382 17.703 8.25812 17.703 8.01921C17.703 7.57782 17.4423 7.0731 17.4423 7.0731C17.4423 7.0731 17.7933 6.82813 17.7933 6.32983C17.7933 5.83152 17.01 5.77718 17.01 5.77718C17.01 5.77718 16.232 5.97744 15.8885 5.87731C15.811 5.85471 15.7461 5.83846 15.6921 5.82494C15.5069 5.77854 15.4499 5.76426 15.4499 5.63588C15.4499 5.47008 15.1999 5.77718 15.1999 5.77718C15.1999 5.77718 15.0039 5.69851 15.1371 5.53575C15.2703 5.37298 15.3305 5.30917 15.3305 5.30917C15.3305 5.30917 15.2131 5.17531 15.015 5.24224C14.817 5.30917 14.7816 5.42008 14.7816 5.42008C14.7816 5.42008 14.5558 5.18893 14.6965 5.02109C14.8373 4.85326 15.015 5.02109 15.015 5.02109C15.015 5.02109 15.2173 5.12671 15.2336 4.98808C15.2499 4.84945 15.2336 4.7389 15.2336 4.7389C15.2336 4.7389 15.7411 4.88446 15.5977 5.11085C15.4543 5.33725 15.545 5.42008 15.545 5.42008C15.545 5.42008 15.8938 5.44155 15.9568 5.20093C15.9807 5.10993 15.9767 5.02168 15.9593 4.95232C16.0598 4.99966 16.1736 5.05575 16.1418 5.14881C16.0835 5.31977 15.9568 5.53575 15.9568 5.53575C15.9568 5.53575 16.3053 5.51538 16.4092 5.24224C16.5131 4.9691 16.4755 5.30917 16.4755 5.30917C16.4755 5.30917 16.609 5.30442 16.8095 5.42008C17.01 5.53575 16.8095 5.24224 16.8095 5.24224C16.8095 5.24224 17.2257 5.75825 17.6193 5.69706C18.013 5.63588 17.9911 5.30917 17.9911 5.30917C17.9911 5.30917 17.8979 5.14881 17.703 5.14881C17.5081 5.14881 17.6193 5.30917 17.6193 5.30917C17.6193 5.30917 17.8094 5.41741 17.5081 5.30917C17.4208 5.27782 17.2906 5.17662 17.129 5.05105L17.129 5.05105C16.7327 4.74308 16.1477 4.2885 15.545 4.35812C14.6965 4.45612 14.4005 4.83528 14.4005 4.83528V4.51957C14.4005 4.51957 14.2579 4.7389 14.125 4.7389C13.9921 4.7389 13.623 4.51957 13.623 4.51957L13.3878 4.7389C13.3878 4.7389 13.2988 4.51957 13.1425 4.51957C12.9862 4.51957 12.9862 4.7389 12.9862 4.7389C12.9862 4.7389 12.7896 4.64221 12.573 4.64221C12.4843 4.64221 12.4088 4.60981 12.3506 4.58483C12.2668 4.54883 12.2188 4.52824 12.2188 4.64221C12.2188 4.66534 12.2193 4.68742 12.2199 4.70843V4.70843C12.2236 4.86274 12.226 4.95902 12.0015 4.98808C11.7464 5.02109 11.5494 5.02109 11.5494 5.02109C11.5494 5.02109 11.3967 4.83528 11.2779 4.83528C11.1591 4.83528 11.0215 4.97947 11.0215 5.11085C11.0215 5.24224 11.1754 5.61695 11.2779 5.69706C11.3049 5.71816 11.2999 5.71586 11.2779 5.70571C11.2163 5.67733 11.0215 5.58762 11.0215 5.77718C11.0215 5.90787 11.0541 5.94054 11.0779 5.9644C11.101 5.98752 11.1158 6.00237 11.0847 6.09012C11.0718 6.12664 11.054 6.16887 11.0354 6.21295C10.9634 6.38409 10.8796 6.58303 11.0215 6.58303C11.0981 6.58303 11.1706 6.56616 11.2222 6.55415C11.2907 6.53818 11.3224 6.53081 11.2779 6.58303C11.2602 6.60385 11.2363 6.6289 11.2122 6.65417L11.2122 6.65418C11.1304 6.74003 11.0463 6.82837 11.1919 6.76133C11.2685 6.72609 11.3331 6.67497 11.3865 6.63281C11.4644 6.57116 11.5181 6.52868 11.5494 6.58303C11.5692 6.61741 11.5533 6.66334 11.5397 6.70271C11.5172 6.76819 11.5008 6.81552 11.665 6.76133C11.7225 6.74233 11.7562 6.72752 11.775 6.71687C11.7758 6.72753 11.7846 6.74236 11.8104 6.76133C11.8655 6.80178 11.8549 6.8401 11.8469 6.86938C11.8377 6.90252 11.8318 6.9241 11.9279 6.9241C12.0198 6.9241 12.1495 6.85286 12.2264 6.81064C12.3008 6.76975 12.3257 6.75607 12.2188 6.86061C12.1514 6.92648 12.054 6.9704 11.9458 7.01914C11.705 7.12763 11.4112 7.26004 11.2779 7.71171C11.098 8.32137 11.1786 8.44701 11.1905 8.46138L10.6367 7.855C10.6367 7.855 10.7691 7.75149 10.7691 7.57782C10.7691 7.40415 10.4262 7.27485 10.4262 7.27485C10.4262 7.27485 10.4382 5.11375 10.5374 4.64221C10.6367 4.17067 10.6878 3.85842 10.6878 3.85842ZM11.7923 6.69646C11.786 6.69647 11.774 6.70329 11.775 6.71687C11.799 6.70324 11.7985 6.69645 11.7923 6.69646ZM15.9593 4.95232L15.9519 4.94886C15.8708 4.91072 15.8011 4.87791 15.8279 4.83528C15.8656 4.77535 15.9306 4.83829 15.9593 4.95232ZM16.3258 9.62851C16.3258 9.62851 16.0633 9.88594 16.23 9.94252C16.2805 9.95968 16.342 9.96925 16.3991 9.97814C16.5304 9.99857 16.6389 10.0155 16.5394 10.1126C16.3966 10.2522 16.2757 10.4406 16.2757 10.6123C16.2757 10.7839 16.2798 10.9288 16.3258 10.8564C16.351 10.8166 16.4546 10.775 16.5663 10.7301C16.658 10.6933 16.7552 10.6542 16.8187 10.6123C16.9386 10.533 16.9369 10.4473 16.9338 10.2932V10.2932C16.9332 10.2666 16.9326 10.2379 16.9326 10.2068C16.9326 9.99626 16.3258 9.62851 16.3258 9.62851ZM14.2894 6.181C14.3506 6.13238 14.3545 5.53227 14.3545 5.53227C14.3545 5.53227 14.5691 5.60372 14.5691 5.69746C14.5691 5.75584 14.5528 5.78923 14.5283 5.83963C14.5135 5.87016 14.4956 5.90693 14.4764 5.95927C14.4293 6.08819 14.5576 6.16896 14.6768 6.24398C14.6859 6.2497 14.6949 6.25539 14.7038 6.26106C14.7846 6.31257 14.8073 6.20081 14.8248 6.11454C14.8345 6.06671 14.8427 6.02672 14.8582 6.02672C14.9018 6.02672 15.227 6.10045 15.4718 6.22484C15.6854 6.33337 15.895 6.28009 16.375 6.15805C16.4451 6.14022 16.521 6.12093 16.6035 6.10045C17.2509 5.93984 17.3359 6.181 17.4023 6.37086C17.4687 6.56073 16.9661 6.82382 16.6035 6.87151C16.4442 6.89246 16.3063 6.88579 16.1793 6.87966C16.0174 6.87184 15.8734 6.86488 15.726 6.91727C15.4951 6.99938 14.7728 6.99121 14.4909 6.98801C14.452 6.98757 14.4214 6.98723 14.4017 6.98723C14.2723 6.98723 14.2478 6.94637 14.1987 6.8644C14.1862 6.84357 14.1721 6.82008 14.1543 6.79393C14.0665 6.6649 14.1731 6.58053 14.2422 6.58053C14.3112 6.58053 14.2894 6.4295 14.2422 6.37086C14.1949 6.31222 14.2282 6.22962 14.2894 6.181Z" fill="#FECA00"/>
<path fill-rule="evenodd" clip-rule="evenodd" d="M8.85701 1.32645V1.5521C8.85701 1.57989 8.84502 1.61779 8.83158 1.66027C8.78897 1.79492 8.73179 1.97563 8.99574 2.02642C9.34295 2.09323 9.59873 2.24506 9.6765 2.3884C9.72633 2.48026 9.71229 2.32719 9.69578 2.14716C9.68653 2.04626 9.6765 1.9369 9.6765 1.85743C9.6765 1.63615 9.42863 1.20496 9.253 1.32645C9.07736 1.44795 8.85701 1.32645 8.85701 1.32645ZM8.85701 13.4421V13.6677C8.85701 13.6677 9.07736 13.5462 9.253 13.6677C9.42863 13.7892 9.6765 13.358 9.6765 13.1367C9.6765 13.0573 9.68653 12.9479 9.69578 12.847C9.71229 12.667 9.72633 12.5139 9.6765 12.6058C9.59873 12.7491 9.34295 12.9009 8.99574 12.9678C8.73179 13.0185 8.78897 13.1992 8.83158 13.3339C8.84502 13.3764 8.85701 13.4143 8.85701 13.4421ZM18.6473 13.4421V13.6677C18.6473 13.6677 18.4269 13.5462 18.2513 13.6677C18.0757 13.7892 17.8278 13.358 17.8278 13.1367C17.8278 13.0573 17.8178 12.9479 17.8085 12.847C17.792 12.667 17.778 12.5139 17.8278 12.6058C17.9056 12.7491 18.1613 12.9009 18.5085 12.9678C18.7725 13.0185 18.7153 13.1992 18.6727 13.3339C18.6593 13.3764 18.6473 13.4143 18.6473 13.4421ZM18.6473 1.5521V1.32645C18.6473 1.32645 18.4269 1.44795 18.2513 1.32645C18.0757 1.20496 17.8278 1.63615 17.8278 1.85743C17.8278 1.9369 17.8178 2.04626 17.8085 2.14716C17.792 2.32719 17.778 2.48026 17.8278 2.3884C17.9056 2.24506 18.1613 2.09323 18.5085 2.02642C18.7725 1.97563 18.7153 1.79492 18.6727 1.66027C18.6593 1.61779 18.6473 1.57989 18.6473 1.5521Z" fill="#FECA00"/>
</g>
<defs>
<clipPath id="clip0_270_60875">
<rect width="20" height="15" fill="white"/>
</clipPath>
</defs>
</svg>

<svg width="24" height="24" viewbox="0 0 20 15" fill="none" xmlns="http://www.w3.org/2000/svg">
  <mask id="a" maskUnits="userSpaceOnUse" x="0" y="0" width="20" height="15">
    <path fill="#fff" d="M0 0h20v15H0z"/>
  </mask>
  <g mask="url(#a)">
    <path fill-rule="evenodd" clip-rule="evenodd" d="M0 0h20v15H0V0z" fill="#FECA00"/>
    <path fill="#1F8A6E" d="M1.25 1.25H5v12.5H1.25z"/>
    <path fill="#F56800" d="M5 1.25h3.75v12.5H5z"/>
    <path fill="#B01D00" d="M8.75 1.25h10v12.5h-10z"/>
    <path fill="#E8AA00" d="M7.5 1.25h1.25v12.5H7.5z"/>
    <path fill-rule="evenodd" clip-rule="evenodd" d="M10.688 3.858s-.796-.002-.796 1.384v2.033s-.38.067-.38.303c0 .235.081.441.23.441.15 0 .3.69.15.69s-.299.297-.15.297c.036 0 .063-.005.084-.008.022-.004.036-.007.046-.001.02.011.02.057.02.194 0 .269-.15.377-.15.377s-.14-.039-.14.12c0 .158.14.198.14.198s.08.035-.074.11c-.155.075-.155.111-.155.111h.379l.19.347.18-.347h.375s-.189-.12-.21-.146c-.023-.025-.05-.062 0-.104a.246.246 0 01.057-.032c.054-.024.117-.053.117-.137 0-.12-.238-.12-.238-.12s-.146-.263-.1-.377a.78.78 0 00.026-.086c.016-.063.025-.099.104-.099.108 0 .17-.137.033-.296 0 0 .158.17.111.389-.046.22.049.319.1.319.05 0 .132-.076.132-.076s.425.38.611.38c.187 0 .455-.304.455-.304l.384.216s.281.394.24.665c-.042.27-.202.421-.39.38-.19-.043-.496.043-.52.16l-.014.063c-.033.133-.08.331.067.282.174-.057.208-.102.208-.102s-.023.102.118.102c.14 0 .18-.102.18-.102s.146.102.248.102c.103 0 .217-.078.217-.078s.075.116.242.078c.167-.038.292-.473.171-.57 0 0 .402-.058.505-.408 0 0-.389-.005-.348-.245.04-.239.245-.393.245-.393s.59-.286.845-.377c.255-.092.677-.185.782-.185.043 0 .073.1.114.234.06.197.144.469.32.617.3.25.096.821.096.821s-.665.067-.665.247.01.26.135.26.122-.103.122-.103.074.102.194.102c.119 0 .214-.102.214-.102s.032.102.188.102c.157 0 .155-.102.155-.102s.029.102.167.102c.137 0 .42-.102.42-.102s.045.102.188.102c.143 0 .146-.102.146-.102s.077.102.201.102c.124 0 .197-.102.197-.102s.178.102.301.102.079-.184 0-.345c-.02-.04-.043-.075-.064-.107-.062-.094-.107-.161-.002-.278.03-.033.064-.066.099-.1.128-.124.256-.249.162-.358a.472.472 0 00-.094-.078c-.107-.075-.217-.151-.167-.576.03-.254.088-.46.141-.652.063-.226.12-.432.12-.67 0-.442-.26-.947-.26-.947s.35-.245.35-.743-.783-.553-.783-.553-.778.2-1.122.1a5.023 5.023 0 00-.196-.052c-.185-.046-.242-.06-.242-.19 0-.165-.25.142-.25.142s-.196-.078-.063-.241c.133-.163.194-.227.194-.227s-.118-.134-.316-.067-.233.178-.233.178-.226-.231-.085-.399c.14-.168.318 0 .318 0s.202.106.219-.033c.016-.139 0-.25 0-.25s.507.146.364.373c-.144.226-.053.31-.053.31s.349.02.412-.22a.507.507 0 00.002-.249c.1.048.215.104.183.197a2.62 2.62 0 01-.185.387s.348-.02.452-.294c.104-.273.067.067.067.067s.133-.005.334.111c.2.116 0-.178 0-.178s.416.516.81.455c.393-.061.371-.388.371-.388s-.093-.16-.288-.16c-.195 0-.084.16-.084.16s.19.108-.11 0c-.088-.031-.218-.132-.38-.258-.396-.308-.981-.763-1.584-.693-.848.098-1.145.477-1.145.477V4.52s-.142.219-.275.219c-.133 0-.502-.22-.502-.22l-.235.22s-.09-.22-.245-.22c-.157 0-.157.22-.157.22s-.196-.097-.413-.097a.556.556 0 01-.222-.057c-.084-.036-.132-.057-.132.057v.066c.005.155.007.251-.217.28-.256.033-.453.033-.453.033s-.152-.186-.271-.186c-.119 0-.257.144-.257.276 0 .131.154.506.257.586.027.021.022.019 0 .009-.062-.029-.257-.118-.257.071 0 .13.033.164.057.187.023.024.038.038.007.126a2.007 2.007 0 01-.05.123c-.072.171-.155.37-.014.37.077 0 .15-.017.201-.029.069-.016.1-.023.056.029l-.066.071c-.082.086-.166.174-.02.107a.974.974 0 00.194-.128c.078-.062.132-.104.163-.05.02.034.004.08-.01.12-.022.065-.038.113.126.058a.653.653 0 00.11-.044c0 .01.01.025.035.044.056.04.045.08.037.108-.01.034-.015.055.08.055.093 0 .223-.071.3-.113.074-.041.099-.055-.008.05a.944.944 0 01-.273.158c-.241.109-.535.241-.668.693-.18.61-.1.735-.088.75l-.553-.607s.132-.104.132-.277c0-.174-.343-.303-.343-.303s.012-2.161.111-2.633c.1-.471.15-.784.15-.784zm1.104 2.838a.019.019 0 00-.017.02c.024-.013.024-.02.017-.02zm4.167-1.744l-.007-.003c-.081-.038-.15-.071-.124-.114.038-.06.103.003.131.117zm.367 4.677s-.263.257-.096.314c.05.017.112.026.17.035.13.02.239.037.14.135-.143.14-.264.328-.264.5 0 .17.004.316.05.243.025-.04.129-.081.24-.126a1.56 1.56 0 00.253-.118c.12-.079.118-.165.115-.319l-.001-.086c0-.21-.607-.578-.607-.578zM14.289 6.18c.062-.049.066-.649.066-.649s.214.072.214.165c0 .059-.016.092-.04.143-.015.03-.033.067-.053.12-.047.128.082.209.2.284l.028.017c.08.052.103-.06.12-.146.01-.048.019-.088.034-.088.044 0 .369.073.614.198.213.108.423.055.903-.067l.229-.058c.647-.16.732.081.798.27.067.19-.436.454-.799.502-.159.02-.297.014-.424.008-.162-.008-.306-.015-.453.037-.23.082-.953.074-1.235.071h-.09c-.129 0-.153-.042-.202-.124a1.397 1.397 0 00-.045-.07c-.088-.13.02-.213.088-.213.07 0 .047-.152 0-.21-.047-.059-.014-.141.047-.19zM8.857 1.326v.226a.42.42 0 01-.025.108c-.043.135-.1.316.164.366.347.067.603.22.68.362.05.092.036-.06.02-.24a3.345 3.345 0 01-.02-.29c0-.222-.247-.653-.423-.532-.176.122-.396 0-.396 0zm0 12.116v.226s.22-.122.396 0c.176.121.424-.31.424-.531 0-.08.01-.19.019-.29.016-.18.03-.333-.02-.241-.077.143-.333.295-.68.362-.264.05-.207.231-.164.366.013.042.025.08.025.108zm9.79 0v.226s-.22-.122-.396 0c-.175.121-.423-.31-.423-.531 0-.08-.01-.19-.02-.29-.016-.18-.03-.333.02-.241.078.143.333.295.68.362.265.05.207.231.165.366a.395.395 0 00-.026.108zm0-11.89v-.226s-.22.122-.396 0c-.175-.121-.423.31-.423.531 0 .08-.01.19-.02.29-.016.18-.03.333.02.241.078-.143.333-.295.68-.362.265-.05.207-.231.165-.366a.395.395 0 01-.026-.108z" fill="#FECA00"/>
  </g>
</svg>
